; generated by PrusaSlicer 2.2.0+linux-x64 on 2020-06-22 at 21:45:14 UTC

; 

; external perimeters extrusion width = 0.45mm
; perimeters extrusion width = 0.45mm
; infill extrusion width = 0.45mm
; solid infill extrusion width = 0.45mm
; top infill extrusion width = 0.40mm
; first layer extrusion width = 0.42mm

M73 P0 R138
M73 Q0 S138
M201 X1000 Y1000 Z200 E5000 ; sets maximum accelerations, mm/sec^2
M203 X200 Y200 Z12 E120 ; sets maximum feedrates, mm/sec
M204 P1250 R1250 T1250 ; sets acceleration (P, T) and retract acceleration (R), mm/sec^2
M205 X8.00 Y8.00 Z0.40 E4.50 ; sets the jerk limits, mm/sec
M205 S0 T0 ; sets the minimum extruding and travel feed rate, mm/sec
M107
M862.3 P "MK3S" ; printer model check
M862.1 P0.4 ; nozzle diameter check
M115 U3.9.0 ; tell printer latest fw version
G90 ; use absolute coordinates
M83 ; extruder relative mode
M104 S215 ; set extruder temp
M140 S60 ; set bed temp
M190 S60 ; wait for bed temp
M109 S215 ; wait for extruder temp
G28 W ; home all without mesh bed level
G80 ; mesh bed leveling
G1 Y-3.0 F1000.0 ; go outside print area
G92 E0.0
G1 X60.0 E9.0 F1000.0 ; intro line
M73 Q0 S138
M73 P0 R138
G1 X100.0 E12.5 F1000.0 ; intro line
G92 E0.0
M221 S95
G21 ; set units to millimeters
G90 ; use absolute coordinates
M83 ; use relative distances for extrusion
M900 K0.06 ; Filament gcode LA 1.5
M900 K30 ; Filament gcode LA 1.0
;BEFORE_LAYER_CHANGE
G92 E0.0
;0.2


G1 E-0.80000 F2100.00000
G1 Z0.600 F10800.000
;AFTER_LAYER_CHANGE
;0.2
G1 X13.384 Y26.789
G1 Z0.200
G1 E0.80000 F2100.00000
M204 S1000
G1 F1200.000
G1 X14.119 Y26.654 E0.02343
G1 X130.509 Y26.653 E3.64934
G1 X131.236 Y26.768 E0.02308
G1 X131.893 Y27.100 E0.02308
G1 X133.994 Y29.159 E0.09226
G1 X246.462 Y150.641 E5.19071
G1 X247.378 Y151.948 E0.05004
G1 X247.825 Y152.938 E0.03407
G1 X248.047 Y153.947 E0.03239
G1 X248.238 Y157.180 E0.10152
G1 X248.304 Y163.872 E0.20985
G1 X248.316 Y198.039 E1.07127
G1 X248.257 Y198.548 E0.01609
G1 X248.089 Y199.037 E0.01621
G1 X247.072 Y200.681 E0.06062
G1 X245.251 Y202.760 E0.08663
G1 X242.693 Y204.274 E0.09321
G1 X241.583 Y204.454 E0.03525
G1 X236.069 Y204.571 E0.17293
G1 X209.903 Y204.693 E0.82043
G1 X156.503 Y204.745 E1.67432
G1 X60.934 Y204.737 E2.99650
G1 X21.451 Y204.642 E1.23796
G1 X14.677 Y204.562 E0.21243
G1 X10.237 Y204.369 E0.13933
G1 X9.448 Y204.235 E0.02511
G1 X8.825 Y204.024 E0.02062
G1 X7.333 Y203.137 E0.05443
G1 X6.113 Y202.120 E0.04981
G1 X5.365 Y201.335 E0.03399
G1 X4.555 Y200.146 E0.04511
G1 X4.011 Y198.474 E0.05513
G1 X3.759 Y196.425 E0.06471
G1 X3.633 Y193.553 E0.09014
G1 X3.577 Y189.414 E0.12981
G1 X3.562 Y154.471 E1.09561
G1 X9.883 Y30.821 E3.88200
G1 X10.009 Y30.176 E0.02060
G1 X10.306 Y29.591 E0.02060
G1 X12.724 Y27.148 E0.10777
G1 X13.331 Y26.818 E0.02167
G1 F8640.000
G1 X14.119 Y26.654 E-0.18576
G1 X16.605 Y26.654 E-0.57424
G1 E-0.04000 F2100.00000
G1 Z0.800 F10800.000
G1 X105.949 Y158.552
G1 Z0.200
G1 E0.80000 F2100.00000
G1 F1200.000
G1 X106.959 Y157.864 E0.03832
G1 X108.124 Y157.783 E0.03662
G1 X109.406 Y157.819 E0.04021
G1 X110.685 Y157.820 E0.04012
G1 X111.768 Y157.908 E0.03407
G1 X112.733 Y158.286 E0.03249
G1 X113.405 Y159.126 E0.03372
G1 X113.733 Y160.298 E0.03816
G1 X113.888 Y161.854 E0.04903
G1 X113.963 Y163.965 E0.06622
G1 X114.114 Y170.677 E0.21051
G1 X114.218 Y172.805 E0.06680
G1 X114.352 Y173.584 E0.02479
G1 X114.408 Y173.658 E0.00290
G1 X114.572 Y173.724 E0.00555
G1 X115.210 Y173.826 E0.02027
G1 X116.322 Y173.892 E0.03490
G1 X119.552 Y173.923 E0.10130
G1 X120.630 Y173.878 E0.03383
G1 X121.169 Y173.730 E0.01752
G1 X121.410 Y173.491 E0.01066
G1 X121.621 Y172.827 E0.02183
G1 X121.739 Y171.481 E0.04236
G1 X121.768 Y169.408 E0.06502
G1 X121.778 Y162.863 E0.20519
G1 X121.842 Y160.614 E0.07055
G1 X122.000 Y159.305 E0.04135
G1 X122.442 Y158.420 E0.03100
G1 X123.959 Y157.892 E0.05035
G1 X125.974 Y157.773 E0.06331
G1 X128.015 Y157.946 E0.06422
G1 X129.457 Y158.444 E0.04783
G1 X130.539 Y159.299 E0.04325
G1 X130.536 Y170.968 E0.36585
G1 X130.504 Y174.580 E0.11325
G1 X130.463 Y175.723 E0.03587
G1 X130.395 Y176.544 E0.02584
G1 X130.284 Y177.156 E0.01948
G1 X130.089 Y177.645 E0.01653
G1 X129.763 Y178.049 E0.01627
G1 X129.041 Y178.465 E0.02614
G1 X127.842 Y178.659 E0.03810
G1 X125.797 Y178.756 E0.06418
G1 X117.146 Y178.889 E0.27129
G1 X117.210 Y178.984 E0.00359
G1 X118.494 Y180.388 E0.05967
G1 X120.640 Y182.556 E0.09565
G1 X126.261 Y187.988 E0.24508
G1 X128.440 Y190.134 E0.09589
G1 X129.929 Y191.647 E0.06656
G1 X130.928 Y192.788 E0.04756
G1 X129.936 Y193.973 E0.04847
G1 X128.630 Y194.332 E0.04245
G1 X127.233 Y194.339 E0.04379
G1 X125.928 Y193.961 E0.04262
G1 X124.988 Y193.173 E0.03844
G1 X123.253 Y191.598 E0.07349
G1 X120.859 Y189.367 E0.10259
G1 X115.251 Y184.059 E0.24212
G1 X112.884 Y181.856 E0.10139
G1 X111.206 Y180.337 E0.07097
G1 X110.582 Y179.825 E0.02532
G1 X110.508 Y179.805 E0.00238
G1 X110.425 Y180.398 E0.01877
G1 X110.364 Y182.359 E0.06149
G1 X110.331 Y189.161 E0.21330
G1 X110.260 Y191.308 E0.06733
G1 X110.106 Y192.608 E0.04105
G1 X109.776 Y193.460 E0.02865
G1 X109.076 Y194.077 E0.02926
G1 X108.208 Y194.382 E0.02884
G1 X107.280 Y194.398 E0.02908
G1 X106.442 Y194.078 E0.02815
G1 X105.916 Y193.620 E0.02186
G1 X105.570 Y192.924 E0.02436
G1 X105.371 Y191.940 E0.03147
G1 X105.247 Y190.487 E0.04574
G1 X105.170 Y188.342 E0.06729
G1 X105.128 Y185.311 E0.09505
G1 X105.097 Y169.669 E0.49045
G1 X105.112 Y165.147 E0.14178
G1 X105.201 Y162.008 E0.09846
G1 X105.431 Y159.934 E0.06542
G1 X105.928 Y158.609 E0.04438
G1 X106.260 Y158.797 F10800.000
G1 F1200.000
G1 X107.087 Y158.233 E0.03138
G1 X108.132 Y158.160 E0.03284
G1 X109.400 Y158.196 E0.03979
G1 X110.670 Y158.197 E0.03981
G1 X111.682 Y158.280 E0.03185
G1 X112.502 Y158.601 E0.02759
G1 X113.062 Y159.302 E0.02814
G1 X113.361 Y160.368 E0.03473
G1 X113.511 Y161.880 E0.04762
G1 X113.586 Y163.976 E0.06576
G1 X113.737 Y170.691 E0.21059
G1 X113.842 Y172.846 E0.06767
G1 X113.996 Y173.738 E0.02838
G1 X114.170 Y173.968 E0.00903
G1 X114.470 Y174.090 E0.01015
G1 X115.170 Y174.201 E0.02221
G1 X116.309 Y174.269 E0.03578
G1 X119.558 Y174.300 E0.10189
G1 X120.688 Y174.253 E0.03547
G1 X121.364 Y174.067 E0.02196
G1 X121.742 Y173.693 E0.01667
G1 X121.993 Y172.901 E0.02604
G1 X122.116 Y171.501 E0.04410
G1 X122.145 Y169.411 E0.06554
G1 X122.155 Y162.869 E0.20511
G1 X122.219 Y160.642 E0.06986
G1 X122.367 Y159.415 E0.03876
G1 X122.711 Y158.726 E0.02414
G1 X124.033 Y158.265 E0.04390
G1 X125.969 Y158.151 E0.06082
G1 X127.937 Y158.318 E0.06190
G1 X129.274 Y158.780 E0.04435
G1 X130.162 Y159.482 E0.03551
G1 X130.159 Y170.966 E0.36007
G1 X130.127 Y174.571 E0.11304
G1 X130.086 Y175.701 E0.03544
G1 X130.021 Y176.495 E0.02499
G1 X129.920 Y177.051 E0.01772
G1 X129.760 Y177.453 E0.01356
G1 X129.514 Y177.757 E0.01228
G1 X128.913 Y178.104 E0.02176
G1 X127.803 Y178.284 E0.03526
G1 X125.785 Y178.379 E0.06333
G1 X116.495 Y178.522 E0.29133
G1 X116.507 Y178.618 E0.00305
G1 X116.913 Y179.218 E0.02270
G1 X118.221 Y180.648 E0.06077
G1 X120.375 Y182.824 E0.09601
G1 X125.997 Y188.258 E0.24516
G1 X128.173 Y190.400 E0.09574
G1 X129.653 Y191.903 E0.06613
G1 X130.432 Y192.794 E0.03709
G1 X129.722 Y193.641 E0.03465
G1 X128.578 Y193.955 E0.03719
G1 X127.286 Y193.962 E0.04052
G1 X126.109 Y193.621 E0.03842
G1 X125.236 Y192.889 E0.03571
G1 X123.509 Y191.320 E0.07318
G1 X121.117 Y189.092 E0.10247
G1 X115.509 Y183.784 E0.24212
G1 X113.139 Y181.578 E0.10151
G1 X111.452 Y180.051 E0.07134
G1 X110.757 Y179.481 E0.02821
G1 X110.425 Y179.394 E0.01074
G1 X110.238 Y179.412 E0.00590
G1 X110.169 Y179.506 E0.00367
G1 X110.049 Y180.366 E0.02722
G1 X109.987 Y182.352 E0.06229
G1 X109.954 Y189.154 E0.21329
G1 X109.883 Y191.279 E0.06667
G1 X109.737 Y192.516 E0.03905
G1 X109.457 Y193.238 E0.02427
G1 X108.881 Y193.746 E0.02407
G1 X108.140 Y194.006 E0.02463
G1 X107.347 Y194.020 E0.02488
G1 X106.639 Y193.749 E0.02376
M73 Q0 S137
G1 X106.220 Y193.385 E0.01740
G1 X105.930 Y192.801 E0.02046
G1 X105.745 Y191.887 E0.02924
G1 X105.624 Y190.464 E0.04476
G1 X105.547 Y188.333 E0.06688
G1 X105.505 Y185.308 E0.09485
G1 X105.474 Y169.669 E0.49035
M73 P0 R137
G1 X105.489 Y165.153 E0.14160
G1 X105.578 Y162.034 E0.09783
G1 X105.800 Y160.022 E0.06346
G1 X106.239 Y158.853 E0.03916
G1 X106.130 Y158.418 F10800.000
G1 F8640.000
G1 X107.087 Y158.233 E-0.24255
G1 X108.132 Y158.160 E-0.24184
G1 X109.325 Y158.194 E-0.27562
G1 E-0.04000 F2100.00000
G1 Z0.800 F10800.000
G1 X141.691 Y157.819
G1 Z0.200
G1 E0.80000 F2100.00000
G1 F1200.000
G1 X141.691 Y162.217 E0.13790
G1 X139.550 Y162.217 E0.06714
G1 X138.418 Y162.303 E0.03559
G1 X137.489 Y162.498 E0.02976
G1 X137.093 Y162.655 E0.01337
G1 X136.896 Y162.812 E0.00790
G1 X136.713 Y163.187 E0.01309
G1 X136.536 Y164.126 E0.02996
G1 X136.415 Y165.781 E0.05202
G1 X136.352 Y168.269 E0.07804
G1 X136.329 Y171.745 E0.10899
G1 X136.326 Y188.783 E0.53421
G1 X136.762 Y189.296 E0.02110
G1 X137.060 Y189.582 E0.01295
G1 X137.351 Y189.729 E0.01021
G1 X137.916 Y189.851 E0.01813
G1 X138.938 Y189.954 E0.03222
G1 X141.691 Y190.146 E0.08653
G1 X141.691 Y194.694 E0.14259
G1 X137.590 Y194.660 E0.12859
G1 X135.338 Y194.616 E0.07062
G1 X133.799 Y194.435 E0.04858
G1 X132.710 Y193.992 E0.03687
G1 X131.991 Y193.122 E0.03539
G1 X131.814 Y191.630 E0.04712
G1 X131.717 Y188.430 E0.10038
G1 X131.663 Y183.296 E0.16095
G1 X131.632 Y169.805 E0.42301
G1 X131.646 Y165.167 E0.14542
G1 X131.761 Y161.955 E0.10079
G1 X132.077 Y159.817 E0.06774
G1 X132.799 Y158.413 E0.04951
G1 X134.056 Y157.822 E0.04356
G1 X135.510 Y157.774 E0.04562
G1 X137.272 Y157.819 E0.05526
G1 X141.631 Y157.819 E0.13667
G1 X141.314 Y158.196 F10800.000
G1 F1200.000
G1 X141.314 Y161.840 E0.11426
G1 X139.536 Y161.840 E0.05576
G1 X138.365 Y161.929 E0.03681
G1 X137.380 Y162.136 E0.03154
G1 X136.901 Y162.325 E0.01615
G1 X136.594 Y162.571 E0.01233
G1 X136.352 Y163.068 E0.01733
G1 X136.161 Y164.077 E0.03222
G1 X136.039 Y165.763 E0.05297
G1 X135.975 Y168.263 E0.07843
G1 X135.952 Y171.744 E0.10914
G1 X135.949 Y188.922 E0.53860
G1 X136.487 Y189.554 E0.02604
G1 X136.839 Y189.893 E0.01532
G1 X137.224 Y190.088 E0.01352
G1 X137.857 Y190.224 E0.02031
G1 X138.906 Y190.330 E0.03306
G1 X141.314 Y190.498 E0.07569
G1 X141.314 Y194.314 E0.11964
G1 X137.595 Y194.283 E0.11660
G1 X135.364 Y194.239 E0.06998
G1 X133.894 Y194.066 E0.04640
G1 X132.940 Y193.678 E0.03229
G1 X132.352 Y192.968 E0.02892
G1 X132.191 Y191.602 E0.04312
G1 X132.094 Y188.422 E0.09975
G1 X132.040 Y183.294 E0.16079
G1 X132.009 Y169.805 E0.42293
G1 X132.023 Y165.174 E0.14520
G1 X132.137 Y161.989 E0.09994
G1 X132.440 Y159.934 E0.06512
G1 X133.075 Y158.700 E0.04353
G1 X134.146 Y158.196 E0.03710
G1 X135.512 Y158.151 E0.04284
G1 X137.267 Y158.196 E0.05507
G1 X141.254 Y158.196 E0.12500
G1 X141.714 Y158.197 F10800.000
G1 F8640.000
G1 X141.308 Y161.487 E-0.76000
G1 E-0.04000 F2100.00000
G1 Z0.800 F10800.000
G1 X141.812 Y162.113
G1 Z0.200
G1 E0.80000 F2100.00000
G1 F1200.000
G1 X141.812 Y157.818 E0.13467
G1 X151.320 Y157.832 E0.29810
G1 X153.137 Y157.914 E0.05704
G1 X154.203 Y158.188 E0.03451
G1 X154.844 Y158.728 E0.02628
G1 X155.809 Y159.655 E0.04196
G1 X155.809 Y193.131 E1.04961
G1 X154.732 Y193.960 E0.04263
G1 X154.018 Y194.387 E0.02606
G1 X152.915 Y194.600 E0.03525
G1 X151.107 Y194.675 E0.05672
G1 X141.812 Y194.688 E0.29145
G1 X141.812 Y190.007 E0.14677
G1 X146.116 Y190.007 E0.13496
G1 X148.570 Y189.935 E0.07695
G1 X150.104 Y189.712 E0.04860
G1 X150.793 Y189.400 E0.02372
G1 X151.008 Y189.066 E0.01245
G1 X151.042 Y188.661 E0.01274
G1 X151.073 Y187.486 E0.03687
G1 X151.082 Y185.880 E0.05035
G1 X151.073 Y184.028 E0.05806
G1 X151.000 Y179.966 E0.12739
G1 X150.176 Y179.748 E0.02671
G1 X149.442 Y179.582 E0.02360
G1 X148.667 Y179.317 E0.02569
G1 X147.865 Y178.868 E0.02883
G1 X147.330 Y178.184 E0.02722
G1 X147.101 Y176.905 E0.04076
G1 X146.988 Y174.550 E0.07392
G1 X146.844 Y167.958 E0.20673
G1 X146.748 Y164.782 E0.09964
G1 X146.686 Y163.869 E0.02868
G1 X146.609 Y163.306 E0.01781
G1 X146.532 Y163.026 E0.00911
G1 X146.463 Y162.900 E0.00450
G1 X146.375 Y162.797 E0.00426
G1 X146.119 Y162.602 E0.01008
G1 X145.790 Y162.463 E0.01121
G1 X145.241 Y162.350 E0.01756
G1 X144.373 Y162.271 E0.02733
G1 X141.872 Y162.117 E0.07858
G1 X142.189 Y161.759 F10800.000
G1 F1200.000
G1 X142.189 Y158.196 E0.11171
G1 X151.311 Y158.209 E0.28601
G1 X153.081 Y158.289 E0.05556
G1 X154.026 Y158.532 E0.03059
G1 X154.592 Y159.008 E0.02320
G1 X155.432 Y159.816 E0.03654
G1 X155.432 Y192.945 E1.03875
G1 X154.519 Y193.648 E0.03612
G1 X153.882 Y194.029 E0.02329
G1 X152.871 Y194.225 E0.03228
G1 X151.099 Y194.298 E0.05560
G1 X142.189 Y194.311 E0.27937
G1 X142.189 Y190.384 E0.12311
G1 X146.122 Y190.384 E0.12331
G1 X148.603 Y190.311 E0.07781
G1 X150.211 Y190.078 E0.05095
G1 X151.050 Y189.698 E0.02888
G1 X151.376 Y189.191 E0.01889
G1 X151.419 Y188.682 E0.01603
G1 X151.450 Y187.492 E0.03733
G1 X151.459 Y185.880 E0.05053
G1 X151.450 Y184.024 E0.05820
G1 X151.372 Y179.674 E0.13640
G1 X150.266 Y179.382 E0.03585
G1 X149.545 Y179.218 E0.02318
G1 X148.821 Y178.971 E0.02398
G1 X148.115 Y178.576 E0.02538
G1 X147.684 Y178.026 E0.02190
G1 X147.477 Y176.862 E0.03705
G1 X147.365 Y174.537 E0.07300
G1 X147.221 Y167.948 E0.20662
G1 X147.125 Y164.763 E0.09991
G1 X147.061 Y163.831 E0.02930
G1 X146.980 Y163.230 E0.01901
G1 X146.884 Y162.884 E0.01126
G1 X146.775 Y162.685 E0.00710
G1 X146.635 Y162.521 E0.00677
G1 X146.310 Y162.274 E0.01282
G1 X145.903 Y162.101 E0.01387
G1 X145.296 Y161.977 E0.01941
G1 X144.402 Y161.895 E0.02816
G1 X142.249 Y161.763 E0.06763
G1 X141.789 Y161.750 F10800.000
G1 F8640.000
G1 X142.194 Y158.472 E-0.76000
G1 E-0.04000 F2100.00000
G1 Z0.800 F10800.000
G1 X159.534 Y157.460
G1 Z0.200
G1 E0.80000 F2100.00000
G1 F1200.000
G1 X160.331 Y157.817 E0.02739
G1 X160.951 Y158.335 E0.02535
G1 X161.260 Y158.719 E0.01543
G1 X161.469 Y159.292 E0.01913
G1 X161.584 Y160.093 E0.02538
G1 X161.656 Y161.307 E0.03812
G1 X161.700 Y163.136 E0.05738
G1 X161.725 Y165.762 E0.08233
G1 X161.752 Y179.789 E0.43983
G1 X161.791 Y184.561 E0.14961
G1 X161.845 Y187.882 E0.10415
G1 X161.899 Y189.075 E0.03745
G1 X161.988 Y189.234 E0.00570
G1 X162.135 Y189.336 E0.00561
G1 X162.187 Y189.345 E0.00165
G1 X162.359 Y189.047 E0.01078
G1 X162.993 Y187.788 E0.04419
G1 X163.865 Y185.971 E0.06320
G1 X165.984 Y181.438 E0.15690
G1 X166.929 Y179.581 E0.06532
G1 X167.676 Y178.283 E0.04696
G1 X168.246 Y177.573 E0.02855
G1 X168.854 Y177.206 E0.02228
G1 X169.540 Y177.104 E0.02176
G1 X170.142 Y177.430 E0.02146
G1 X170.634 Y177.905 E0.02142
G1 X171.187 Y178.637 E0.02878
G1 X172.078 Y180.010 E0.05131
G1 X173.208 Y181.845 E0.06757
G1 X175.456 Y185.624 E0.13787
G1 X176.259 Y186.938 E0.04829
G1 X176.903 Y187.925 E0.03694
G1 X177.402 Y188.607 E0.02652
G1 X177.500 Y188.716 E0.00459
G1 X177.592 Y185.743 E0.09326
G1 X177.649 Y180.911 E0.15153
G1 X177.670 Y174.276 E0.20801
G1 X177.666 Y164.257 E0.31415
G1 X177.750 Y161.343 E0.09140
G1 X177.981 Y159.415 E0.06089
G1 X178.535 Y158.120 E0.04417
G1 X179.585 Y157.531 E0.03776
G1 X180.755 Y157.492 E0.03668
G1 X183.397 Y157.558 E0.08286
G1 X184.337 Y157.644 E0.02960
G1 X185.076 Y157.863 E0.02417
G1 X185.648 Y158.313 E0.02283
G1 X185.923 Y158.811 E0.01783
G1 X186.068 Y159.478 E0.02140
G1 X186.159 Y160.451 E0.03065
G1 X186.223 Y161.927 E0.04632
G1 X186.287 Y167.043 E0.16044
G1 X186.304 Y193.160 E0.81886
G1 X185.283 Y193.855 E0.03874
G1 X184.632 Y194.152 E0.02241
G1 X183.652 Y194.315 E0.03115
G1 X182.249 Y194.387 E0.04406
G1 X178.608 Y194.410 E0.11416
G1 X177.348 Y194.372 E0.03952
G1 X176.286 Y194.195 E0.03378
G1 X175.358 Y193.761 E0.03211
G1 X174.570 Y193.030 E0.03369
G1 X173.840 Y192.017 E0.03915
G1 X173.023 Y190.655 E0.04979
G1 X171.230 Y187.548 E0.11249
G1 X170.608 Y186.532 E0.03733
G1 X170.110 Y185.775 E0.02844
G1 X169.723 Y185.263 E0.02012
G1 X169.430 Y184.971 E0.01297
G1 X168.947 Y185.843 E0.03126
G1 X168.297 Y187.154 E0.04590
G1 X166.781 Y190.495 E0.11502
G1 X166.059 Y191.943 E0.05074
G1 X165.432 Y193.022 E0.03914
G1 X164.837 Y193.753 E0.02957
G1 X163.343 Y194.269 E0.04953
G1 X161.401 Y194.444 E0.06113
G1 X159.483 Y194.330 E0.06026
G1 X158.034 Y193.806 E0.04831
G1 X157.700 Y193.200 E0.02169
G1 X157.562 Y192.521 E0.02174
