; generated by PrusaSlicer 2.2.0-rc+linux-x64 on 2020-03-07 at 16:20:04 UTC

; 

; external perimeters extrusion width = 0.45mm
; perimeters extrusion width = 0.45mm
; infill extrusion width = 0.45mm
; solid infill extrusion width = 0.45mm
; top infill extrusion width = 0.40mm
; first layer extrusion width = 0.42mm

M73 P0 R301
M73 Q0 S308
M201 X1000 Y1000 Z1000 E5000 ; sets maximum accelerations, mm/sec^2
M203 X200 Y200 Z12 E120 ; sets maximum feedrates, mm/sec
M204 P1250 R1250 T1250 ; sets acceleration (P, T) and retract acceleration (R), mm/sec^2
M205 X8.00 Y8.00 Z0.40 E4.50 ; sets the jerk limits, mm/sec
M205 S0 T0 ; sets the minimum extruding and travel feed rate, mm/sec
M107
M862.3 P "MK3" ; printer model check
M862.1 P0.4 ; nozzle diameter check
M115 U3.8.1 ; tell printer latest fw version
G90 ; use absolute coordinates
M83 ; extruder relative mode
M104 S215 ; set extruder temp
M140 S60 ; set bed temp
M190 S60 ; wait for bed temp
M109 S215 ; wait for extruder temp
G28 W ; home all without mesh bed level
G80 ; mesh bed leveling
G1 Y-3.0 F1000.0 ; go outside print area
G92 E0.0
G1 X60.0 E9.0 F1000.0 ; intro line
M73 Q0 S308
M73 P0 R301
G1 X100.0 E12.5 F1000.0 ; intro line
G92 E0.0
M221 S95
G21 ; set units to millimeters
G90 ; use absolute coordinates
M83 ; use relative distances for extrusion
M900 K30 ; Filament gcode
;BEFORE_LAYER_CHANGE
G92 E0.0
;0.2


G1 E-0.80000 F2100.00000
G1 Z0.600 F10800.000
;AFTER_LAYER_CHANGE
;0.2
G1 X24.076 Y15.521
G1 Z0.200
G1 E0.80000 F2100.00000
M204 S1000
G1 F1200.000
G1 X25.025 Y15.323 E0.03039
G1 X224.979 Y15.323 E6.26941
G1 X225.884 Y15.504 E0.02896
G1 X226.653 Y16.016 E0.02896
G1 X227.168 Y16.783 E0.02896
G1 X227.352 Y17.687 E0.02896
G1 X227.352 Y192.319 E5.47545
G1 X227.250 Y192.991 E0.02130
G1 X226.959 Y193.609 E0.02142
G1 X226.505 Y194.119 E0.02142
G1 X225.924 Y194.479 E0.02142
G1 X224.984 Y194.677 E0.03013
G1 X174.925 Y194.677 E1.56956
G1 X174.430 Y194.625 E0.01562
G1 X173.953 Y194.469 E0.01574
G1 X23.800 Y104.537 E5.48776
G1 X23.238 Y104.068 E0.02296
G1 X22.846 Y103.450 E0.02296
G1 X22.648 Y102.506 E0.03024
G1 X22.648 Y17.666 E2.66009
G1 X22.755 Y16.995 E0.02130
G1 X23.045 Y16.384 E0.02119
G1 X23.498 Y15.878 E0.02130
G1 X24.025 Y15.552 E0.01942
G1 F8640.000
G1 X25.025 Y15.323 E-0.23689
G1 X27.290 Y15.323 E-0.52311
G1 E-0.04000 F2100.00000
G1 Z0.800 F10800.000
G1 X181.871 Y131.649
G1 Z0.200
G1 E0.80000 F2100.00000
G1 F1200.000
G1 X184.779 Y131.649 E0.09116
G1 X185.677 Y134.415 E0.09118
G1 X183.325 Y136.123 E0.09113
G1 X180.973 Y134.415 E0.09113
G1 X181.853 Y131.706 E0.08930
G1 X182.145 Y132.026 F10800.000
G1 F1200.000
G1 X184.505 Y132.026 E0.07397
G1 X185.234 Y134.271 E0.07400
G1 X183.325 Y135.657 E0.07396
G1 X181.416 Y134.271 E0.07396
G1 X182.127 Y132.083 E0.07212
G1 X182.104 Y131.628 F10800.000
G1 F8640.000
G1 X184.505 Y132.026 E-0.54920
G1 X184.787 Y132.894 E-0.21080
G1 E-0.04000 F2100.00000
G1 Z0.800 F10800.000
G1 X181.871 Y172.349
G1 Z0.200
G1 E0.80000 F2100.00000
G1 F1200.000
G1 X184.779 Y172.349 E0.09116
G1 X185.677 Y175.115 E0.09118
G1 X183.325 Y176.823 E0.09113
G1 X180.973 Y175.115 E0.09113
G1 X181.853 Y172.406 E0.08930
G1 X182.145 Y172.726 F10800.000
G1 F1200.000
G1 X184.505 Y172.726 E0.07397
G1 X185.234 Y174.971 E0.07400
G1 X183.325 Y176.357 E0.07396
G1 X181.416 Y174.971 E0.07396
G1 X182.127 Y172.783 E0.07212
G1 X182.104 Y172.328 F10800.000
G1 F8640.000
G1 X184.505 Y172.726 E-0.54920
G1 X184.787 Y173.594 E-0.21080
G1 E-0.04000 F2100.00000
G1 Z0.800 F10800.000
G1 X175.712 Y191.513
G1 Z0.200
G1 E0.80000 F2100.00000
G1 F1200.000
G1 X175.712 Y108.287 E2.60949
G1 X224.188 Y108.287 E1.51993
G1 X224.188 Y191.513 E2.60949
G1 X175.772 Y191.513 E1.51804
G1 X175.335 Y191.890 F10800.000
G1 F1200.000
G1 X175.335 Y107.910 E2.63313
M73 Q0 S307
M73 P0 R300
G1 X224.565 Y107.910 E1.54357
G1 X224.565 Y191.890 E2.63313
G1 X175.395 Y191.890 E1.54169
G1 X175.405 Y191.496 F10800.000
G1 F8640.000
G1 X175.393 Y188.599 E-0.76000
G1 E-0.04000 F2100.00000
G1 Z0.800 F10800.000
G1 X175.825 Y190.637
G1 Z0.200
G1 E0.80000 F2100.00000
G1 F1200.000
G1 X176.418 Y191.230 E0.02634
G1 X176.952 Y191.230 E0.01676
G1 X175.995 Y190.273 E0.04250
G1 X175.995 Y189.739 E0.01676
G1 X177.486 Y191.230 E0.06620
G1 X178.020 Y191.230 E0.01676
G1 X175.995 Y189.205 E0.08989
G1 X175.995 Y188.671 E0.01676
G1 X178.554 Y191.230 E0.11359
G1 X179.088 Y191.230 E0.01676
G1 X175.995 Y188.137 E0.13729
G1 X175.995 Y187.603 E0.01676
G1 X179.622 Y191.230 E0.16098
G1 X180.155 Y191.230 E0.01676
G1 X175.995 Y187.070 E0.18468
G1 X175.995 Y186.536 E0.01676
G1 X180.689 Y191.230 E0.20838
G1 X181.223 Y191.230 E0.01676
G1 X175.995 Y186.002 E0.23207
G1 X175.995 Y185.468 E0.01676
G1 X181.757 Y191.230 E0.25577
G1 X182.291 Y191.230 E0.01676
G1 X175.995 Y184.934 E0.27947
G1 X175.995 Y184.400 E0.01676
G1 X182.825 Y191.230 E0.30316
G1 X183.358 Y191.230 E0.01676
G1 X175.995 Y183.867 E0.32686
G1 X175.995 Y183.333 E0.01676
G1 X183.892 Y191.230 E0.35056
G1 X184.426 Y191.230 E0.01676
G1 X175.995 Y182.799 E0.37425
G1 X175.995 Y182.265 E0.01676
G1 X184.960 Y191.230 E0.39795
G1 X185.494 Y191.230 E0.01676
G1 X175.995 Y181.731 E0.42165
G1 X175.995 Y181.197 E0.01676
G1 X186.028 Y191.230 E0.44534
G1 X186.561 Y191.230 E0.01676
G1 X175.995 Y180.664 E0.46904
G1 X175.995 Y180.130 E0.01676
G1 X187.095 Y191.230 E0.49274
G1 X187.629 Y191.230 E0.01676
G1 X175.995 Y179.596 E0.51643
G1 X175.995 Y179.062 E0.01676
G1 X188.163 Y191.230 E0.54013
G1 X188.697 Y191.230 E0.01676
G1 X175.995 Y178.528 E0.56383
G1 X175.995 Y177.994 E0.01676
G1 X189.231 Y191.230 E0.58752
G1 X189.764 Y191.230 E0.01676
G1 X175.995 Y177.461 E0.61122
G1 X175.995 Y176.927 E0.01676
G1 X190.298 Y191.230 E0.63492
G1 X190.832 Y191.230 E0.01676
G1 X175.995 Y176.393 E0.65861
G1 X175.995 Y175.859 E0.01676
G1 X191.366 Y191.230 E0.68231
G1 X191.900 Y191.230 E0.01676
G1 X175.995 Y175.325 E0.70601
G1 X175.995 Y174.791 E0.01676
G1 X192.434 Y191.230 E0.72970
G1 X192.968 Y191.230 E0.01676
G1 X175.995 Y174.257 E0.75340
G1 X175.995 Y173.724 E0.01676
G1 X193.501 Y191.230 E0.77710
G1 X194.035 Y191.230 E0.01676
G1 X175.995 Y173.190 E0.80079
G1 X175.995 Y172.656 E0.01676
G1 X194.569 Y191.230 E0.82449
G1 X195.103 Y191.230 E0.01676
G1 X175.995 Y172.122 E0.84819
G1 X175.995 Y171.588 E0.01676
G1 X195.637 Y191.230 E0.87188
G1 X196.171 Y191.230 E0.01676
G1 X175.995 Y171.054 E0.89558
G1 X175.995 Y170.521 E0.01676
G1 X196.874 Y191.400 E0.92681
G1 F8640.000
G1 X194.547 Y189.072 E-0.76000
G1 E-0.04000 F2100.00000
G1 Z0.800 F10800.000
G1 X203.814 Y191.400
G1 Z0.200
G1 E0.80000 F2100.00000
G1 F1200.000
G1 X185.226 Y172.812 E0.82508
G1 X185.483 Y173.603 E0.02609
G1 X203.110 Y191.230 E0.78246
G1 X202.577 Y191.230 E0.01676
G1 X185.740 Y174.393 E0.74737
G1 X185.997 Y175.184 E0.02609
G1 X202.043 Y191.230 E0.71228
G1 X201.509 Y191.230 E0.01676
G1 X185.715 Y175.436 E0.70107
G1 X185.406 Y175.661 E0.01200
G1 X200.975 Y191.230 E0.69110
G1 X200.441 Y191.230 E0.01676
G1 X185.097 Y175.886 E0.68113
G1 X184.787 Y176.110 E0.01200
G1 X199.907 Y191.230 E0.67116
G1 X199.374 Y191.230 E0.01676
G1 X184.478 Y176.335 E0.66119
G1 X184.169 Y176.559 E0.01200
G1 X198.840 Y191.230 E0.65122
G1 X198.306 Y191.230 E0.01676
G1 X183.860 Y176.784 E0.64125
G1 X183.550 Y177.008 E0.01200
G1 X197.772 Y191.230 E0.63128
G1 X197.238 Y191.230 E0.01676
G1 X182.031 Y176.023 E0.67505
G1 F8640.000
G1 X184.358 Y178.350 E-0.76000
G1 E-0.04000 F2100.00000
G1 Z0.800 F10800.000
G1 X180.920 Y174.912
G1 Z0.200
G1 E0.80000 F2100.00000
G1 F1200.000
G1 X175.995 Y169.987 E0.21863
G1 X175.995 Y169.453 E0.01676
G1 X180.916 Y174.374 E0.21846
G1 X181.047 Y173.971 E0.01330
G1 X175.995 Y168.919 E0.22427
G1 X175.995 Y168.385 E0.01676
G1 X181.178 Y173.568 E0.23008
G1 X181.309 Y173.165 E0.01330
G1 X175.995 Y167.851 E0.23588
G1 X175.995 Y167.318 E0.01676
G1 X181.440 Y172.762 E0.24169
G1 X181.571 Y172.359 E0.01330
G1 X175.995 Y166.784 E0.24750
G1 X175.995 Y166.250 E0.01676
G1 X181.811 Y172.066 E0.25818
G1 X182.345 Y172.066 E0.01676
G1 X175.995 Y165.716 E0.28187
G1 X175.995 Y165.182 E0.01676
G1 X182.879 Y172.066 E0.30557
M73 Q0 S306
M73 P0 R299
G1 X183.413 Y172.066 E0.01676
G1 X175.995 Y164.648 E0.32927
G1 X175.995 Y164.115 E0.01676
G1 X183.946 Y172.066 E0.35296
G1 X184.480 Y172.066 E0.01676
G1 X175.995 Y163.581 E0.37666
G1 X175.995 Y163.047 E0.01676
G1 X204.178 Y191.230 E1.25103
G1 X204.712 Y191.230 E0.01676
G1 X175.995 Y162.513 E1.27473
G1 X175.995 Y161.979 E0.01676
G1 X205.246 Y191.230 E1.29842
G1 X205.780 Y191.230 E0.01676
G1 X175.995 Y161.445 E1.32212
G1 X175.995 Y160.911 E0.01676
G1 X206.314 Y191.230 E1.34582
G1 X206.847 Y191.230 E0.01676
G1 X175.995 Y160.378 E1.36951
G1 X175.995 Y159.844 E0.01676
G1 X207.381 Y191.230 E1.39321
G1 X207.915 Y191.230 E0.01676
G1 X175.995 Y159.310 E1.41690
G1 X175.995 Y158.776 E0.01676
G1 X208.449 Y191.230 E1.44060
G1 X208.983 Y191.230 E0.01676
G1 X175.995 Y158.242 E1.46430
G1 X175.995 Y157.708 E0.01676
G1 X209.517 Y191.230 E1.48799
G1 X210.050 Y191.230 E0.01676
G1 X175.995 Y157.175 E1.51169
G1 X175.995 Y156.641 E0.01676
G1 X210.584 Y191.230 E1.53539
G1 X211.118 Y191.230 E0.01676
G1 X175.995 Y156.107 E1.55908
G1 X175.995 Y155.573 E0.01676
G1 X211.652 Y191.230 E1.58278
G1 X212.186 Y191.230 E0.01676
G1 X175.995 Y155.039 E1.60648
G1 X175.995 Y154.505 E0.01676
G1 X212.720 Y191.230 E1.63017
G1 X213.253 Y191.230 E0.01676
G1 X175.995 Y153.972 E1.65387
G1 X175.995 Y153.438 E0.01676
G1 X213.787 Y191.230 E1.67757
G1 X214.321 Y191.230 E0.01676
G1 X175.995 Y152.904 E1.70126
G1 X175.995 Y152.370 E0.01676
G1 X214.855 Y191.230 E1.72496
G1 X215.389 Y191.230 E0.01676
G1 X175.995 Y151.836 E1.74866
G1 X175.995 Y151.302 E0.01676
G1 X215.923 Y191.230 E1.77235
G1 X216.456 Y191.230 E0.01676
G1 X175.995 Y150.769 E1.79605
M73 Q1 S305
M73 P1 R298
G1 X175.995 Y150.235 E0.01676
G1 X216.990 Y191.230 E1.81975
G1 X217.524 Y191.230 E0.01676
G1 X175.995 Y149.701 E1.84344
G1 X175.995 Y149.167 E0.01676
G1 X218.058 Y191.230 E1.86714
G1 X218.592 Y191.230 E0.01676
G1 X175.995 Y148.633 E1.89084
G1 X175.995 Y148.099 E0.01676
G1 X219.126 Y191.230 E1.91453
G1 X219.660 Y191.230 E0.01676
G1 X175.995 Y147.565 E1.93823
G1 X175.995 Y147.032 E0.01676
G1 X220.193 Y191.230 E1.96193
G1 X220.727 Y191.230 E0.01676
G1 X175.995 Y146.498 E1.98562
G1 X175.995 Y145.964 E0.01676
G1 X221.261 Y191.230 E2.00932
G1 X221.795 Y191.230 E0.01676
G1 X175.995 Y145.430 E2.03302
G1 X175.995 Y144.896 E0.01676
G1 X222.329 Y191.230 E2.05671
G1 X222.863 Y191.230 E0.01676
G1 X175.995 Y144.362 E2.08041
G1 X175.995 Y143.829 E0.01676
G1 X223.396 Y191.230 E2.10411
G1 X223.905 Y191.230 E0.01597
G1 X223.905 Y191.205 E0.00079
G1 X175.995 Y143.295 E2.12669
G1 X175.995 Y142.761 E0.01676
G1 X223.905 Y190.671 E2.12669
G1 X223.905 Y190.137 E0.01676
G1 X175.995 Y142.227 E2.12669
G1 X175.995 Y141.693 E0.01676
G1 X223.905 Y189.603 E2.12669
G1 X223.905 Y189.070 E0.01676
G1 X175.995 Y141.159 E2.12669
G1 X175.995 Y140.626 E0.01676
G1 X223.905 Y188.536 E2.12669
M73 Q1 S304
M73 P1 R297
G1 X223.905 Y188.002 E0.01676
G1 X175.995 Y140.092 E2.12669
G1 X175.995 Y139.558 E0.01676
G1 X223.905 Y187.468 E2.12669
G1 X223.905 Y186.934 E0.01676
G1 X175.995 Y139.024 E2.12669
G1 X175.995 Y138.490 E0.01676
G1 X223.905 Y186.400 E2.12669
G1 X223.905 Y185.867 E0.01676
G1 X175.995 Y137.956 E2.12669
G1 X175.995 Y137.422 E0.01676
G1 X223.905 Y185.333 E2.12669
G1 X223.905 Y184.799 E0.01676
G1 X175.995 Y136.889 E2.12669
G1 X175.995 Y136.355 E0.01676
G1 X223.905 Y184.265 E2.12669
G1 X223.905 Y183.731 E0.01676
G1 X175.995 Y135.821 E2.12669
G1 X175.995 Y135.287 E0.01676
G1 X223.905 Y183.197 E2.12669
G1 X223.905 Y182.664 E0.01676
G1 X175.995 Y134.753 E2.12669
G1 X175.995 Y134.219 E0.01676
G1 X223.905 Y182.130 E2.12669
G1 X223.905 Y181.596 E0.01676
G1 X175.995 Y133.686 E2.12669
G1 X175.995 Y133.152 E0.01676
G1 X223.905 Y181.062 E2.12669
G1 X223.905 Y180.528 E0.01676
G1 X175.995 Y132.618 E2.12669
G1 X175.995 Y132.084 E0.01676
G1 X223.905 Y179.994 E2.12669
G1 X223.905 Y179.461 E0.01676
G1 X175.995 Y131.550 E2.12669
G1 X175.995 Y131.016 E0.01676
G1 X223.905 Y178.927 E2.12669
M73 Q1 S303
M73 P1 R296
G1 X223.905 Y178.393 E0.01676
G1 X175.995 Y130.483 E2.12669
G1 X175.995 Y129.949 E0.01676
G1 X224.075 Y178.029 E2.13422
G1 F8640.000
G1 X221.747 Y175.701 E-0.76000
G1 E-0.04000 F2100.00000
G1 Z0.800 F10800.000
G1 X224.075 Y109.163
G1 Z0.200
G1 E0.80000 F2100.00000
G1 F1200.000
G1 X223.481 Y108.570 E0.02634
G1 X222.948 Y108.570 E0.01676
G1 X223.905 Y109.527 E0.04251
G1 X223.905 Y110.061 E0.01676
G1 X222.414 Y108.570 E0.06620
G1 X221.880 Y108.570 E0.01676
G1 X223.905 Y110.595 E0.08990
G1 X223.905 Y111.129 E0.01676
G1 X221.346 Y108.570 E0.11360
G1 X220.812 Y108.570 E0.01676
G1 X223.905 Y111.663 E0.13729
G1 X223.905 Y112.197 E0.01676
G1 X220.278 Y108.570 E0.16099
G1 X219.744 Y108.570 E0.01676
G1 X223.905 Y112.731 E0.18469
G1 X223.905 Y113.264 E0.01676
G1 X219.211 Y108.570 E0.20838
G1 X218.677 Y108.570 E0.01676
G1 X223.905 Y113.798 E0.23208
G1 X223.905 Y114.332 E0.01676
G1 X218.143 Y108.570 E0.25578
G1 X217.609 Y108.570 E0.01676
G1 X223.905 Y114.866 E0.27947
G1 X223.905 Y115.400 E0.01676
G1 X217.075 Y108.570 E0.30317
G1 X216.541 Y108.570 E0.01676
G1 X223.905 Y115.934 E0.32687
G1 X223.905 Y116.467 E0.01676
G1 X216.008 Y108.570 E0.35056
G1 X215.474 Y108.570 E0.01676
G1 X223.905 Y117.001 E0.37426
G1 X223.905 Y117.535 E0.01676
G1 X214.940 Y108.570 E0.39796
G1 X214.406 Y108.570 E0.01676
G1 X223.905 Y118.069 E0.42165
G1 X223.905 Y118.603 E0.01676
G1 X213.872 Y108.570 E0.44535
G1 X213.338 Y108.570 E0.01676
G1 X223.905 Y119.137 E0.46905
G1 X223.905 Y119.670 E0.01676
G1 X212.805 Y108.570 E0.49274
G1 X212.271 Y108.570 E0.01676
G1 X223.905 Y120.204 E0.51644
G1 X223.905 Y120.738 E0.01676
G1 X211.737 Y108.570 E0.54014
G1 X211.203 Y108.570 E0.01676
G1 X223.905 Y121.272 E0.56383
G1 X223.905 Y121.806 E0.01676
G1 X210.669 Y108.570 E0.58753
G1 X210.135 Y108.570 E0.01676
G1 X223.905 Y122.340 E0.61123
G1 X223.905 Y122.873 E0.01676
G1 X209.602 Y108.570 E0.63492
G1 X209.068 Y108.570 E0.01676
G1 X223.905 Y123.407 E0.65862
G1 X223.905 Y123.941 E0.01676
G1 X208.534 Y108.570 E0.68232
G1 X208.000 Y108.570 E0.01676
G1 X223.905 Y124.475 E0.70601
G1 X223.905 Y125.009 E0.01676
G1 X207.466 Y108.570 E0.72971
G1 X206.932 Y108.570 E0.01676
G1 X223.905 Y125.543 E0.75341
G1 X223.905 Y126.077 E0.01676
G1 X206.398 Y108.570 E0.77710
G1 X205.865 Y108.570 E0.01676
G1 X223.905 Y126.610 E0.80080
G1 X223.905 Y127.144 E0.01676
G1 X205.331 Y108.570 E0.82450
G1 X204.797 Y108.570 E0.01676
G1 X223.905 Y127.678 E0.84819
G1 X223.905 Y128.212 E0.01676
G1 X204.263 Y108.570 E0.87189
G1 X203.729 Y108.570 E0.01676
G1 X223.905 Y128.746 E0.89559
G1 X223.905 Y129.280 E0.01676
G1 X203.195 Y108.570 E0.91928
G1 X202.662 Y108.570 E0.01676
G1 X223.905 Y129.813 E0.94298
G1 X223.905 Y130.347 E0.01676
G1 X202.128 Y108.570 E0.96668
G1 X201.594 Y108.570 E0.01676
G1 X223.905 Y130.881 E0.99037
G1 X223.905 Y131.415 E0.01676
G1 X201.060 Y108.570 E1.01407
G1 X200.526 Y108.570 E0.01676
G1 X223.905 Y131.949 E1.03776
G1 X223.905 Y132.483 E0.01676
G1 X199.992 Y108.570 E1.06146
G1 X199.459 Y108.570 E0.01676
G1 X223.905 Y133.016 E1.08516
G1 X223.905 Y133.550 E0.01676
G1 X198.925 Y108.570 E1.10885
G1 X198.391 Y108.570 E0.01676
G1 X223.905 Y134.084 E1.13255
G1 X223.905 Y134.618 E0.01676
G1 X197.857 Y108.570 E1.15625
G1 X197.323 Y108.570 E0.01676
G1 X223.905 Y135.152 E1.17994
G1 X223.905 Y135.686 E0.01676
G1 X196.789 Y108.570 E1.20364
G1 X196.256 Y108.570 E0.01676
G1 X223.905 Y136.219 E1.22734
M73 Q2 S302
M73 P2 R295
G1 X223.905 Y136.753 E0.01676
G1 X195.722 Y108.570 E1.25103
G1 X195.188 Y108.570 E0.01676
G1 X223.905 Y137.287 E1.27473
G1 X223.905 Y137.821 E0.01676
G1 X194.654 Y108.570 E1.29843
G1 X194.120 Y108.570 E0.01676
G1 X223.905 Y138.355 E1.32212
G1 X223.905 Y138.889 E0.01676
G1 X193.586 Y108.570 E1.34582
G1 X193.052 Y108.570 E0.01676
G1 X223.905 Y139.423 E1.36952
G1 X223.905 Y139.956 E0.01676
G1 X192.519 Y108.570 E1.39321
G1 X191.985 Y108.570 E0.01676
G1 X223.905 Y140.490 E1.41691
G1 X223.905 Y141.024 E0.01676
G1 X191.451 Y108.570 E1.44061
G1 X190.917 Y108.570 E0.01676
G1 X223.905 Y141.558 E1.46430
G1 X223.905 Y142.092 E0.01676
